; HEADER_BLOCK_START
; generated by OrcaSlicer 2.3.1 on 2026-02-12 at 22:05:28
; total layer number: 562
; filament_density: 1.24
; filament_diameter: 1.75
; max_z_height: 112.40
; HEADER_BLOCK_END

; THUMBNAIL_BLOCK_START

;
; THUMBNAIL_BLOCK_END

; external perimeters extrusion width = 0.42mm
; perimeters extrusion width = 0.45mm
; infill extrusion width = 0.45mm
; solid infill extrusion width = 0.42mm
; top infill extrusion width = 0.42mm
; first layer extrusion width = 0.50mm

; EXECUTABLE_BLOCK_START
EXCLUDE_OBJECT_DEFINE NAME=Base.stl_id_0_copy_0 CENTER=127.5,127.5 POLYGON=[[77.5,100.365],[77.5335,99.9174],[77.6333,99.4803],[77.7971,99.0629],[78.0213,98.6746],[78.3008,98.324],[78.6295,98.019],[79,97.7665],[126,70.631],[126.404,70.4365],[126.832,70.3043],[127.276,70.2375],[127.724,70.2375],[128.168,70.3043],[128.596,70.4365],[129,70.631],[176,97.7665],[176.37,98.019],[176.699,98.324],[176.979,98.6746],[177.203,99.0629],[177.367,99.4803],[177.466,99.9174],[177.5,100.365],[177.5,154.635],[177.466,155.083],[177.367,155.52],[177.203,155.937],[176.979,156.325],[176.699,156.676],[176.37,156.981],[176,157.234],[129,184.369],[128.596,184.564],[128.168,184.696],[127.724,184.763],[127.276,184.763],[126.832,184.696],[126.404,184.564],[126,184.369],[79,157.234],[78.6295,156.981],[78.3008,156.676],[78.0213,156.325],[77.7971,155.937],[77.6333,155.52],[77.5335,155.083],[77.5,154.635],[77.5,100.365]]
;TYPE:Custom
G9111 bedTemp=60 extruderTemp=200
M117 ; Limpiar mensaje de pantalla
; M900 K0.051 <-- lo dejo comentado porque me interfiere en el test del presure advance

; print_bed_min = 0,0
; print_bed_max = 255,255
; print_bed_size = 255,255
; first_layer_print_min = 74.7358,67.4733
; first_layer_print_max = 180.264,187.527
; first_layer_print_size = 105.528,120.053
M106 P3 S153
G90
G21
M83 ; use relative distances for extrusion
; filament start gcode
SET_PRESSURE_ADVANCE ADVANCE=0; Override pressure advance value
M106 S0
;LAYER_CHANGE
;Z:0.2
;HEIGHT:0.2
; BEFORE_LAYER_CHANGE 0 @ 0.2mm
G1 E-1.5 F3000
; AFTER_LAYER_CHANGE 0 @ 0.2mm
;_SET_FAN_SPEED_CHANGING_LAYER
SET_VELOCITY_LIMIT ACCEL=2000
SET_VELOCITY_LIMIT SQUARE_CORNER_VELOCITY=9
G1 X83.391 Y92.304 F21000
G1 Z.2
G1 Z.2
G1 E1.5 F2400
;TYPE:Skirt
;WIDTH:0.5
G1 F3000
G1 X124.727 Y68.438 E1.81046
G1 X125.667 Y68.01 E.03917
G1 X126.466 Y67.795 E.03136
G1 X127.287 Y67.702 E.03136
G1 X128.113 Y67.732 E.03136
G1 X129.333 Y68.01 E.04744
G1 X130.273 Y68.438 E.03917
G1 X177.263 Y95.568 E2.05809
G1 X178.416 Y96.458 E.05523
G1 X179.18 Y97.416 E.04652
G1 X179.567 Y98.147 E.03136
G1 X179.841 Y98.927 E.03136
G1 X180.036 Y100.37 E.05523
G1 X180.036 Y154.63 E2.05809
G1 X179.841 Y156.073 E.05523
G1 X179.393 Y157.215 E.04652
G1 X178.954 Y157.915 E.03135
G1 X178.416 Y158.542 E.03136
G1 X177.263 Y159.432 E.05523
G1 X130.273 Y186.562 E2.05809
G1 X128.926 Y187.115 E.05523
G1 X128.113 Y187.268 E.03136
G1 X127.287 Y187.298 E.03136
G1 X126.074 Y187.115 E.04652
G1 X124.727 Y186.562 E.05523
G1 X77.737 Y159.432 E2.05809
G1 X76.584 Y158.542 E.05523
G1 X75.82 Y157.584 E.04652
G1 X75.433 Y156.853 E.03136
G1 X75.159 Y156.073 E.03135
G1 X74.964 Y154.63 E.05523
G1 X74.964 Y100.37 E2.05809
G1 X75.159 Y98.927 E.05523
G1 X75.607 Y97.785 E.04652
G1 X76.046 Y97.085 E.03135
G1 X76.584 Y96.458 E.03136
G1 X77.737 Y95.568 E.05523
G1 X83.356 Y92.324 E.24611
G1 X83.585 Y92.719 F21000
G1 F3000
G1 X124.956 Y68.834 E1.81198
G1 X125.802 Y68.447 E.03529
G1 X126.534 Y68.247 E.02877
G1 X127.287 Y68.159 E.02877
G1 X128.045 Y68.184 E.02877
G1 X129.198 Y68.447 E.04485
G1 X130.044 Y68.834 E.03529
G1 X177.034 Y95.964 E2.05809
G1 X178.105 Y96.793 E.05135
G1 X178.784 Y97.645 E.04135
G1 X179.142 Y98.314 E.02877
G1 X179.396 Y99.029 E.02877
G1 X179.579 Y100.37 E.05135
G1 X179.579 Y154.63 E2.05809
G1 X179.396 Y155.971 E.05135
G1 X178.997 Y156.986 E.04135
G1 X178.597 Y157.63 E.02877
G1 X178.105 Y158.207 E.02877
G1 X177.034 Y159.036 E.05135
G1 X130.044 Y186.166 E2.05809
G1 X128.791 Y186.679 E.05135
G1 X128.045 Y186.816 E.02877
G1 X127.287 Y186.841 E.02877
G1 X126.209 Y186.679 E.04135
G1 X124.956 Y186.166 E.05135
G1 X77.966 Y159.036 E2.05809
G1 X76.895 Y158.207 E.05135
G1 X76.216 Y157.355 E.04135
G1 X75.858 Y156.686 E.02877
G1 X75.604 Y155.971 E.02877
G1 X75.421 Y154.63 E.05135
G1 X75.421 Y100.37 E2.05809
G1 X75.604 Y99.029 E.05135
G1 X76.003 Y98.014 E.04135
G1 X76.403 Y97.37 E.02877
G1 X76.895 Y96.793 E.02877
G1 X77.966 Y95.964 E.05135
G1 X83.55 Y92.739 E.24459
; printing object Base.stl id:0 copy 0
;WIPE_START
G1 X85.282 Y91.739 E-1.5
;WIPE_END
EXCLUDE_OBJECT_START NAME=Base.stl_id_0_copy_0
G1 X78.832 Y99.23 F21000
G1 E1.5 F2400
;TYPE:Inner wall
;WIDTH:0.499999
G1 F1200
G1 X79.004 Y98.977 E.0116
G1 X79.51 Y98.577 E.02443
G1 X126.375 Y71.52 E2.0526
G1 X126.755 Y71.33 E.01612
G1 X127.346 Y71.195 E.02301
G1 X127.954 Y71.24 E.02313
G1 X128.552 Y71.478 E.02443
G1 X175.529 Y98.599 E2.05746
G1 X175.996 Y98.977 E.02278
G1 X176.338 Y99.479 E.02307
G1 X176.484 Y99.912 E.01731
G1 X176.543 Y100.485 E.02184
G1 X176.543 Y154.515 E2.0494
G1 X176.517 Y154.94 E.01612
G1 X176.338 Y155.521 E.02307
G1 X175.996 Y156.023 E.02307
G1 X175.49 Y156.423 E.02443
G1 X128.625 Y183.48 E2.0526
G1 X128.245 Y183.67 E.01612
G1 X127.652 Y183.805 E.02307
G1 X127.046 Y183.76 E.02307
G1 X126.448 Y183.522 E.02443
G1 X79.582 Y156.465 E2.0526
G1 X79.228 Y156.231 E.01612
G1 X78.814 Y155.785 E.02307
G1 X78.55 Y155.237 E.02307
G1 X78.457 Y154.6 E.02443
G1 X78.457 Y100.485 E2.0526
G1 X78.483 Y100.06 E.01612
G1 X78.633 Y99.573 E.01936
G1 X78.436 Y98.957 F21000
;TYPE:Outer wall
G1 F1200
G1 X78.805 Y98.538 E.0212
G1 X79.266 Y98.19 E.0219
G1 X126.146 Y71.124 E2.05325
G1 X126.587 Y70.903 E.01871
G1 X127.126 Y70.766 E.02108
G1 X127.699 Y70.739 E.02179
G1 X128.236 Y70.849 E.02076
G1 X128.766 Y71.073 E.02186
G1 X175.734 Y98.19 E2.05709
G1 X176.195 Y98.538 E.02191
G1 X176.564 Y98.957 E.02119
G1 X176.819 Y99.454 E.0212
G1 X176.971 Y99.992 E.02119
G1 X177 Y100.485 E.01871
G1 X177 Y154.515 E2.0494
G1 X176.971 Y155.008 E.01871
G1 X176.819 Y155.546 E.02119
G1 X176.564 Y156.043 E.0212
G1 X176.195 Y156.462 E.02119
G1 X175.734 Y156.81 E.02191
G1 X128.854 Y183.876 E2.05325
G1 X128.413 Y184.097 E.01871
G1 X127.871 Y184.235 E.0212
G1 X127.313 Y184.263 E.02119
G1 X126.766 Y184.152 E.0212
G1 X126.234 Y183.927 E.0219
G1 X79.354 Y156.861 E2.05325
G1 X78.942 Y156.589 E.01871
G1 X78.552 Y156.189 E.0212
G1 X78.249 Y155.72 E.02119
G1 X78.071 Y155.19 E.02119
G1 X78 Y154.617 E.0219
G1 X78 Y100.485 E2.05325
G1 X78.029 Y99.992 E.01871
G1 X78.181 Y99.454 E.02119
G1 X78.253 Y99.313 E.00602
;WIPE_START
G1 X78.805 Y98.538 E-.71367
G1 X79.266 Y98.19 E-.43312
G1 X79.674 Y97.955 E-.35321
;WIPE_END
G1 X128.363 Y71.538 F21000
G1 E1.5 F2400
;TYPE:Bottom surface
;WIDTH:0.501622
G1 F1200
M106 S0
G1 X127.366 Y71.538 E.03795
G1 X127.123 Y71.575 E.00936
G1 X126.88 Y71.65 E.00965
G1 X126.608 Y71.781 E.01151
G1 X126.233 Y71.997 E.01646
G1 X128.767 Y71.997 E.09642
G1 X129.561 Y72.456 E.03492
G1 X125.439 Y72.456 E.15691
G1 X124.644 Y72.915 E.03492
G1 X130.356 Y72.915 E.21739
G1 X131.15 Y73.373 E.03492
G1 X123.85 Y73.373 E.27788
G1 X123.055 Y73.832 E.03492
G1 X131.945 Y73.832 E.33836
G1 X132.739 Y74.291 E.03492
G1 X122.261 Y74.291 E.39885
G1 X121.466 Y74.749 E.03492
G1 X133.534 Y74.749 E.45933
G1 X134.328 Y75.208 E.03492
G1 X120.672 Y75.208 E.51982
G1 X119.877 Y75.667 E.03492
G1 X135.123 Y75.667 E.5803
G1 X135.917 Y76.126 E.03492
G1 X119.083 Y76.126 E.64079
G1 X118.288 Y76.584 E.03492
G1 X136.712 Y76.584 E.70127
G1 X137.506 Y77.043 E.03492
G1 X117.494 Y77.043 E.76176
G1 X116.699 Y77.502 E.03492
G1 X138.301 Y77.502 E.82224
G1 X139.095 Y77.96 E.03492
G1 X115.905 Y77.96 E.88273
G1 X115.111 Y78.419 E.03492
G1 X139.89 Y78.419 E.94321
G1 X140.684 Y78.878 E.03492
G1 X114.316 Y78.878 E1.0037
G1 X113.522 Y79.336 E.03492
G1 X141.478 Y79.336 E1.06418
G1 X142.273 Y79.795 E.03492
G1 X112.727 Y79.795 E1.12467
G1 X111.933 Y80.254 E.03492
G1 X143.067 Y80.254 E1.18515
G1 X143.862 Y80.713 E.03492
G1 X111.138 Y80.713 E1.24564
G1 X110.344 Y81.171 E.03492
G1 X144.656 Y81.171 E1.30612
G1 X145.451 Y81.63 E.03492
G1 X109.549 Y81.63 E1.3666
G1 X108.755 Y82.089 E.03492
G1 X146.245 Y82.089 E1.42709
G1 X147.04 Y82.547 E.03492
G1 X107.96 Y82.547 E1.48757
G1 X107.166 Y83.006 E.03492
G1 X147.834 Y83.006 E1.54806
G1 X148.629 Y83.465 E.03492
G1 X106.371 Y83.465 E1.60854
G1 X105.577 Y83.923 E.03492
G1 X149.423 Y83.923 E1.66903
G1 X150.218 Y84.382 E.03492
G1 X104.782 Y84.382 E1.72951
G1 X103.988 Y84.841 E.03492
G1 X151.012 Y84.841 E1.79
G1 X151.807 Y85.3 E.03492
G1 X103.193 Y85.3 E1.85048
G1 X102.399 Y85.758 E.03492
G1 X152.601 Y85.758 E1.91097
G1 X153.396 Y86.217 E.03492
G1 X101.604 Y86.217 E1.97145
G1 X100.81 Y86.676 E.03492
G1 X154.19 Y86.676 E2.03194
G1 X154.985 Y87.134 E.03492
G1 X100.015 Y87.134 E2.09242
G1 X99.221 Y87.593 E.03492
G1 X155.779 Y87.593 E2.15291
G1 X156.574 Y88.052 E.03492
G1 X98.426 Y88.052 E2.21339
G1 X97.632 Y88.51 E.03492
G1 X157.368 Y88.51 E2.27388
G1 X158.163 Y88.969 E.03492
G1 X96.837 Y88.969 E2.33436
G1 X96.043 Y89.428 E.03492
G1 X158.957 Y89.428 E2.39485
G1 X159.752 Y89.887 E.03492
G1 X95.248 Y89.887 E2.45533
G1 X94.454 Y90.345 E.03492
G1 X160.546 Y90.345 E2.51582
G1 X161.341 Y90.804 E.03492
G1 X93.659 Y90.804 E2.5763
G1 X92.865 Y91.263 E.03492
G1 X162.135 Y91.263 E2.63679
G1 X162.93 Y91.721 E.03492
G1 X92.07 Y91.721 E2.69727
G1 X91.276 Y92.18 E.03492
G1 X163.724 Y92.18 E2.75776
G1 X164.519 Y92.639 E.03492
G1 X90.481 Y92.639 E2.81824
G1 X89.687 Y93.097 E.03492
G1 X165.313 Y93.097 E2.87873
G1 X166.108 Y93.556 E.03492
G1 X88.892 Y93.556 E2.93921
G1 X88.098 Y94.015 E.03492
G1 X166.902 Y94.015 E2.9997
G1 X167.697 Y94.474 E.03492
G1 X87.303 Y94.474 E3.06018
G1 X86.509 Y94.932 E.03492
G1 X168.491 Y94.932 E3.12066
G1 X169.286 Y95.391 E.03492
G1 X85.714 Y95.391 E3.18115
G1 X84.92 Y95.85 E.03492
G1 X170.08 Y95.85 E3.24163
G1 X170.875 Y96.308 E.03492
G1 X84.125 Y96.308 E3.30212
G1 X83.331 Y96.767 E.03492
G1 X171.669 Y96.767 E3.3626
G1 X172.464 Y97.226 E.03492
G1 X82.536 Y97.226 E3.42309
G1 X81.742 Y97.685 E.03492
G1 X173.258 Y97.685 E3.48357
G1 X174.053 Y98.143 E.03492
G1 X80.947 Y98.143 E3.54406
G1 X80.153 Y98.602 E.03492
G1 X174.847 Y98.602 E3.60454
G1 X175.308 Y98.868 E.02025
G1 X175.582 Y99.061 E.01275
G1 X79.418 Y99.061 E3.66047
G1 X79.256 Y99.211 E.0084
G1 X79.098 Y99.409 E.00965
G1 X79.035 Y99.519 E.00485
G1 X175.965 Y99.519 E3.68967
G1 X176.028 Y99.628 E.0048
G1 X176.147 Y99.978 E.01405
G1 X78.853 Y99.978 E3.70349
G1 X78.822 Y100.112 E.00522
G1 X78.8 Y100.413 E.01151
G1 X78.8 Y100.437 E.0009
G1 X176.2 Y100.437 E3.70753
G1 X176.2 Y100.895 E.01746
G1 X78.8 Y100.895 E3.70753
G1 X78.8 Y101.354 E.01746
G1 X176.2 Y101.354 E3.70753
G1 X176.2 Y101.813 E.01746
G1 X78.8 Y101.813 E3.70753
G1 X78.8 Y102.272 E.01746
G1 X176.2 Y102.272 E3.70753
G1 X176.2 Y102.73 E.01746
G1 X78.8 Y102.73 E3.70753
G1 X78.8 Y103.189 E.01746
G1 X176.2 Y103.189 E3.70753
G1 X176.2 Y103.648 E.01746
G1 X78.8 Y103.648 E3.70753
G1 X78.8 Y104.106 E.01746
G1 X176.2 Y104.106 E3.70753
G1 X176.2 Y104.565 E.01746
G1 X78.8 Y104.565 E3.70753
G1 X78.8 Y105.024 E.01746
G1 X176.2 Y105.024 E3.70753
G1 X176.2 Y105.482 E.01746
G1 X78.8 Y105.482 E3.70753
G1 X78.8 Y105.941 E.01746
G1 X176.2 Y105.941 E3.70753
G1 X176.2 Y106.4 E.01746
G1 X78.8 Y106.4 E3.70753
G1 X78.8 Y106.859 E.01746
G1 X176.2 Y106.859 E3.70753
G1 X176.2 Y107.317 E.01746
G1 X78.8 Y107.317 E3.70753
G1 X78.8 Y107.776 E.01746
G1 X176.2 Y107.776 E3.70753
G1 X176.2 Y108.235 E.01746
G1 X78.8 Y108.235 E3.70753
G1 X78.8 Y108.693 E.01746
G1 X176.2 Y108.693 E3.70753
G1 X176.2 Y109.152 E.01746
G1 X78.8 Y109.152 E3.70753
G1 X78.8 Y109.611 E.01746
G1 X176.2 Y109.611 E3.70753
G1 X176.2 Y110.069 E.01746
G1 X78.8 Y110.069 E3.70753
G1 X78.8 Y110.528 E.01746
G1 X176.2 Y110.528 E3.70753
G1 X176.2 Y110.987 E.01746
G1 X78.8 Y110.987 E3.70753
G1 X78.8 Y111.446 E.01746
G1 X176.2 Y111.446 E3.70753
G1 X176.2 Y111.904 E.01746
G1 X78.8 Y111.904 E3.70753
G1 X78.8 Y112.363 E.01746
G1 X176.2 Y112.363 E3.70753
G1 X176.2 Y112.822 E.01746
G1 X78.8 Y112.822 E3.70753
G1 X78.8 Y113.28 E.01746
G1 X176.2 Y113.28 E3.70753
G1 X176.2 Y113.739 E.01746
G1 X78.8 Y113.739 E3.70753
G1 X78.8 Y114.198 E.01746
G1 X176.2 Y114.198 E3.70753
G1 X176.2 Y114.656 E.01746
G1 X78.8 Y114.656 E3.70753
G1 X78.8 Y115.115 E.01746
G1 X176.2 Y115.115 E3.70753
G1 X176.2 Y115.574 E.01746
G1 X78.8 Y115.574 E3.70753
G1 X78.8 Y116.033 E.01746
G1 X176.2 Y116.033 E3.70753
G1 X176.2 Y116.491 E.01746
G1 X78.8 Y116.491 E3.70753
G1 X78.8 Y116.95 E.01746
G1 X176.2 Y116.95 E3.70753
G1 X176.2 Y117.409 E.01746
G1 X78.8 Y117.409 E3.70753
G1 X78.8 Y117.867 E.01746
G1 X176.2 Y117.867 E3.70753
G1 X176.2 Y118.326 E.01746
G1 X78.8 Y118.326 E3.70753
G1 X78.8 Y118.785 E.01746
G1 X176.2 Y118.785 E3.70753
G1 X176.2 Y119.244 E.01746
G1 X78.8 Y119.244 E3.70753
G1 X78.8 Y119.702 E.01746
G1 X176.2 Y119.702 E3.70753
G1 X176.2 Y120.161 E.01746
G1 X78.8 Y120.161 E3.70753
G1 X78.8 Y120.62 E.01746
G1 X176.2 Y120.62 E3.70753
G1 X176.2 Y121.078 E.01746
G1 X78.8 Y121.078 E3.70753
G1 X78.8 Y121.537 E.01746
G1 X176.2 Y121.537 E3.70753
G1 X176.2 Y121.996 E.01746
G1 X78.8 Y121.996 E3.70753
G1 X78.8 Y122.454 E.01746
G1 X176.2 Y122.454 E3.70753
G1 X176.2 Y122.913 E.01746
G1 X78.8 Y122.913 E3.70753
G1 X78.8 Y123.372 E.01746
G1 X176.2 Y123.372 E3.70753
G1 X176.2 Y123.831 E.01746
G1 X78.8 Y123.831 E3.70753
G1 X78.8 Y124.289 E.01746
G1 X176.2 Y124.289 E3.70753
G1 X176.2 Y124.748 E.01746
G1 X78.8 Y124.748 E3.70753
G1 X78.8 Y125.207 E.01746
G1 X176.2 Y125.207 E3.70753
G1 X176.2 Y125.665 E.01746
G1 X78.8 Y125.665 E3.70753
G1 X78.8 Y126.124 E.01746
G1 X176.2 Y126.124 E3.70753
G1 X176.2 Y126.583 E.01746
G1 X78.8 Y126.583 E3.70753
G1 X78.8 Y127.041 E.01746
G1 X176.2 Y127.041 E3.70753
G1 X176.2 Y127.5 E.01746
G1 X78.8 Y127.5 E3.70753
G1 X78.8 Y127.959 E.01746
G1 X176.2 Y127.959 E3.70753
G1 X176.2 Y128.418 E.01746
G1 X78.8 Y128.418 E3.70753
G1 X78.8 Y128.876 E.01746
G1 X176.2 Y128.876 E3.70753
G1 X176.2 Y129.335 E.01746
G1 X78.8 Y129.335 E3.70753
G1 X78.8 Y129.794 E.01746
G1 X176.2 Y129.794 E3.70753
G1 X176.2 Y130.252 E.01746
G1 X78.8 Y130.252 E3.70753
G1 X78.8 Y130.711 E.01746
G1 X176.2 Y130.711 E3.70753
G1 X176.2 Y131.17 E.01746
G1 X78.8 Y131.17 E3.70753
G1 X78.8 Y131.628 E.01746
G1 X176.2 Y131.628 E3.70753
G1 X176.2 Y132.087 E.01746
G1 X78.8 Y132.087 E3.70753
G1 X78.8 Y132.546 E.01746
G1 X176.2 Y132.546 E3.70753
G1 X176.2 Y133.005 E.01746
G1 X78.8 Y133.005 E3.70753
G1 X78.8 Y133.463 E.01746
G1 X176.2 Y133.463 E3.70753
G1 X176.2 Y133.922 E.01746
G1 X78.8 Y133.922 E3.70753
G1 X78.8 Y134.381 E.01746
G1 X176.2 Y134.381 E3.70753
G1 X176.2 Y134.839 E.01746
G1 X78.8 Y134.839 E3.70753
G1 X78.8 Y135.298 E.01746
G1 X176.2 Y135.298 E3.70753
G1 X176.2 Y135.757 E.01746
G1 X78.8 Y135.757 E3.70753
G1 X78.8 Y136.215 E.01746
G1 X176.2 Y136.215 E3.70753
G1 X176.2 Y136.674 E.01746
G1 X78.8 Y136.674 E3.70753
G1 X78.8 Y137.133 E.01746
G1 X176.2 Y137.133 E3.70753
G1 X176.2 Y137.592 E.01746
G1 X78.8 Y137.592 E3.70753
G1 X78.8 Y138.05 E.01746
G1 X176.2 Y138.05 E3.70753
G1 X176.2 Y138.509 E.01746
G1 X78.8 Y138.509 E3.70753
G1 X78.8 Y138.968 E.01746
G1 X176.2 Y138.968 E3.70753
G1 X176.2 Y139.426 E.01746
G1 X78.8 Y139.426 E3.70753
G1 X78.8 Y139.885 E.01746
G1 X176.2 Y139.885 E3.70753
G1 X176.2 Y140.344 E.01746
G1 X78.8 Y140.344 E3.70753
G1 X78.8 Y140.802 E.01746
G1 X176.2 Y140.803 E3.70753
G1 X176.2 Y141.261 E.01746
G1 X78.8 Y141.261 E3.70753
G1 X78.8 Y141.72 E.01746
G1 X176.2 Y141.72 E3.70753
G1 X176.2 Y142.179 E.01746
G1 X78.8 Y142.179 E3.70753
G1 X78.8 Y142.637 E.01746
G1 X176.2 Y142.637 E3.70753
G1 X176.2 Y143.096 E.01746
G1 X78.8 Y143.096 E3.70753
G1 X78.8 Y143.555 E.01746
G1 X176.2 Y143.555 E3.70753
G1 X176.2 Y144.013 E.01746
G1 X78.8 Y144.013 E3.70753
G1 X78.8 Y144.472 E.01746
G1 X176.2 Y144.472 E3.70753
G1 X176.2 Y144.931 E.01746
G1 X78.8 Y144.931 E3.70753
G1 X78.8 Y145.39 E.01746
G1 X176.2 Y145.39 E3.70753
G1 X176.2 Y145.848 E.01746
G1 X78.8 Y145.848 E3.70753
G1 X78.8 Y146.307 E.01746
G1 X176.2 Y146.307 E3.70753
G1 X176.2 Y146.766 E.01746
G1 X78.8 Y146.766 E3.70753
G1 X78.8 Y147.224 E.01746
G1 X176.2 Y147.224 E3.70753
